X:37
T:Shannon et Vicky
C:Laurence Beaudry
N: Laurence Beaudry, Reproduced with Permission
Z:robin.beech@mcgill.ca
R:waltz
M:3/4
L:1/4
K:G
D2 |: B>AG | A>cA | B>dB | cde | B>AG | dBG | EGB | FED |
B>AG | A>cA | B>dB | cec | deg | dBG | FAd |1 G3 :|2 G2- G/g/ |:
fdA | afd | efg | c3 | Bdg | bag | f/g/af | d2c |
ecG | ceg | dBg | dBd | cAc | BGB | dfa | g3 :|
